dist/assets/images/icons/email.svg

<svg width="132" height="71" viewBox="0 0 132 71" fill="none" xmlns="http://www.w3.org/2000/svg">
<path d="M114.756 48.1636L97.8291 37.3157L114.635 24.7085C115.461 24.0903 115.635 22.9107 115.025 22.0742C114.415 21.2377 113.252 21.0611 112.427 21.6804L88.5953 39.557L88.5853 39.5489L88.5755 39.557L64.743 21.6804C63.9196 21.0611 62.7566 21.2377 62.1458 22.0742C61.5363 22.9107 61.7106 24.0903 62.5354 24.7085L79.3416 37.3157L62.4163 48.1636C61.5487 48.7198 61.2901 49.8832 61.8388 50.7631C62.192 51.3298 62.7934 51.6412 63.4101 51.6412C63.7504 51.6412 64.0926 51.5468 64.4012 51.3489L82.5465 39.7191L87.4821 43.4224C87.8095 43.668 88.1975 43.7919 88.5858 43.7919C88.9743 43.7919 89.3626 43.668 89.6908 43.4224L94.625 39.7191L112.771 51.3489C113.079 51.5468 113.422 51.6412 113.762 51.6412C114.378 51.6412 114.981 51.3298 115.333 50.7631C115.88 49.8832 115.622 48.7198 114.756 48.1636Z" fill="#C0C0C0"/>
<path d="M113.04 10.4824H64.1265C56.9446 10.4824 51.1016 16.9398 51.1016 24.8764V46.1245C51.1016 54.062 56.9446 60.5196 64.1265 60.5196H113.04C120.224 60.5196 126.066 54.0622 126.066 46.1245V24.8764C126.066 16.9398 120.223 10.4824 113.04 10.4824ZM121.803 46.1245C121.803 51.4716 117.88 55.8072 113.04 55.8072H64.1265C59.2874 55.8072 55.3653 51.4716 55.3653 46.1245V24.8764C55.3653 19.5296 59.2876 15.1951 64.1265 15.1951H113.04C117.881 15.1951 121.803 19.5296 121.803 24.8764V46.1245H121.803Z" fill="#C0C0C0"/>
<path d="M41.7211 22.0039H8.03838C6.87641 22.0039 5.93359 22.9599 5.93359 24.1388C5.93359 25.3184 6.87641 26.2747 8.03838 26.2747H41.7211C42.882 26.2747 43.8248 25.3184 43.8248 24.1388C43.8251 22.9602 42.882 22.0039 41.7211 22.0039Z" fill="#C0C0C0"/>
<path d="M42.1735 32.834H15.756C14.8451 32.834 14.1055 33.7892 14.1055 34.9688C14.1055 36.1474 14.8451 37.1047 15.756 37.1047H42.1735C43.0857 37.1047 43.824 36.1474 43.824 34.9688C43.824 33.7892 43.0854 32.834 42.1735 32.834Z" fill="#C0C0C0"/>
<path d="M42.5295 43.6582H21.8098C21.0942 43.6582 20.5156 44.6145 20.5156 45.7931C20.5156 46.9729 21.0942 47.9289 21.8098 47.9289H42.5295C43.2439 47.9289 43.8237 46.9729 43.8237 45.7931C43.8237 44.6145 43.2441 43.6582 42.5295 43.6582Z" fill="#C0C0C0"/>
</svg>

<svg width="132" height="71" fill="none" xmlns="http://www.w3.org/2000/svg"><path d="M114.756 48.164L97.829 37.316l16.806-12.608a1.9 1.9 0 00.39-2.634 1.84 1.84 0 00-2.598-.394L88.595 39.557l-.01-.008-.01.008L64.744 21.68a1.84 1.84 0 00-2.597.394 1.901 1.901 0 00.39 2.634l16.806 12.608-16.926 10.848a1.9 1.9 0 00-.577 2.6 1.85 1.85 0 001.571.877c.34 0 .683-.094.991-.292l18.145-11.63 4.936 3.703a1.837 1.837 0 002.209 0l4.934-3.703 18.146 11.63c.308.198.651.292.991.292.616 0 1.219-.311 1.571-.878a1.902 1.902 0 00-.577-2.6z" fill="silver"/><path d="M113.04 10.482H64.126c-7.181 0-13.024 6.458-13.024 14.394v21.248c0 7.938 5.843 14.396 13.024 14.396h48.914c7.184 0 13.026-6.458 13.026-14.396V24.876c0-7.936-5.843-14.394-13.026-14.394zm8.763 35.642c0 5.348-3.923 9.683-8.763 9.683H64.126c-4.839 0-8.76-4.335-8.76-9.683V24.876c0-5.346 3.922-9.68 8.76-9.68h48.914c4.841 0 8.763 4.334 8.763 9.68v21.248zm-80.082-24.12H8.038c-1.162 0-2.104.956-2.104 2.135 0 1.18.942 2.136 2.104 2.136h33.683c1.161 0 2.104-.957 2.104-2.136 0-1.179-.943-2.135-2.104-2.135zm.452 10.83H15.756c-.91 0-1.65.955-1.65 2.135 0 1.178.74 2.136 1.65 2.136h26.417c.913 0 1.651-.958 1.651-2.136 0-1.18-.739-2.135-1.65-2.135zm.357 10.824H21.81c-.716 0-1.294.956-1.294 2.135 0 1.18.578 2.136 1.294 2.136h20.72c.714 0 1.294-.956 1.294-2.136 0-1.178-.58-2.135-1.294-2.135z" fill="silver"/></svg>
